X:1
C:Vickers
L:1/8
M:6/8
K:D
V:1
g | fed c2 A | ecA A2 g | fed c2 A | dBG G2 g | 
fed c2 A | ecA edc | def g2 e | dBG G2 :| 
g | faf g2 f | ecA A2 g | faf g2 e | dBG G2 g | 
faf g2 e | def g2 e | agf g2 e | dBG G2 :|

